packages/icons/svg/24/Hashtag.svg

<svg width="24" height="24" viewBox="0 0 24 24" fill="none" xmlns="http://www.w3.org/2000/svg">
<path fill-rule="evenodd" clip-rule="evenodd" d="M11.2414 5.1598C11.3297 4.33609 10.7335 3.59679 9.90974 3.50854C9.08603 3.42028 8.34673 4.01649 8.25848 4.8402L7.9735 7.5H6.32117C5.49274 7.5 4.82117 8.17157 4.82117 9C4.82117 9.82843 5.49274 10.5 6.32117 10.5H7.65207L7.33064 13.5H5.67871C4.85028 13.5 4.17871 14.1716 4.17871 15C4.17871 15.8284 4.85028 16.5 5.67871 16.5H7.00921L6.75848 18.8402C6.67022 19.6639 7.26643 20.4032 8.09014 20.4915C8.91386 20.5797 9.65315 19.9835 9.74141 19.1598L10.0264 16.5H13.0092L12.7585 18.8402C12.6702 19.6639 13.2664 20.4032 14.0901 20.4915C14.9139 20.5797 15.6532 19.9835 15.7414 19.1598L16.0264 16.5H17.6787C18.5071 16.5 19.1787 15.8284 19.1787 15C19.1787 14.1716 18.5071 13.5 17.6787 13.5H16.3478L16.6692 10.5H18.3212C19.1496 10.5 19.8212 9.82843 19.8212 9C19.8212 8.17157 19.1496 7.5 18.3212 7.5H16.9907L17.2414 5.1598C17.3297 4.33609 16.7335 3.59679 15.9097 3.50854C15.086 3.42028 14.3467 4.01649 14.2585 4.8402L13.9735 7.5H10.9907L11.2414 5.1598ZM13.3306 13.5L13.6521 10.5H10.6692L10.3478 13.5H13.3306Z" fill="#858585"/>
</svg>

<svg width="24" height="24" fill="none" xmlns="http://www.w3.org/2000/svg" viewBox="0 0 24 24"><path fill-rule="evenodd" clip-rule="evenodd" d="M11.241 5.16a1.5 1.5 0 10-2.983-.32L7.974 7.5H6.32a1.5 1.5 0 100 3h1.331l-.321 3H5.679a1.5 1.5 0 000 3h1.33l-.25 2.34a1.5 1.5 0 002.982.32l.285-2.66h2.983l-.25 2.34a1.5 1.5 0 102.982.32l.285-2.66h1.653a1.5 1.5 0 000-3h-1.331l.321-3h1.652a1.5 1.5 0 000-3h-1.33l.25-2.34a1.5 1.5 0 10-2.982-.32l-.286 2.66h-2.982l.25-2.34zm2.09 8.34l.321-3H10.67l-.321 3h2.983z" fill="currentColor"></path></svg>
